images/cursors/add.svg

<svg width="63" height="24" viewBox="0 0 63 24" fill="none" xmlns="http://www.w3.org/2000/svg">
    <rect width="63" height="24" rx="7" fill="#563AFF"/>
    <path d="M27.2629 16.7273H25.2856L28.2984 8H30.6763L33.6848 16.7273H31.7075L29.5214 9.99432H29.4533L27.2629 16.7273ZM27.1393 13.2969H31.8098V14.7372H27.1393V13.2969Z" fill="white"/>
    <path d="M37.829 16.7273H34.7352V8H37.8545C38.7324 8 39.4881 8.17472 40.1216 8.52415C40.7551 8.87074 41.2423 9.36932 41.5832 10.0199C41.927 10.6705 42.0989 11.4489 42.0989 12.3551C42.0989 13.2642 41.927 14.0455 41.5832 14.6989C41.2423 15.3523 40.7523 15.8537 40.1131 16.2031C39.4767 16.5526 38.7153 16.7273 37.829 16.7273ZM36.5804 15.1463H37.7523C38.2977 15.1463 38.7565 15.0497 39.1287 14.8565C39.5037 14.6605 39.7849 14.358 39.9724 13.9489C40.1628 13.5369 40.2579 13.0057 40.2579 12.3551C40.2579 11.7102 40.1628 11.1832 39.9724 10.7741C39.7849 10.3651 39.5051 10.0639 39.1329 9.87074C38.7608 9.67756 38.302 9.58097 37.7565 9.58097H36.5804V15.1463Z" fill="white"/>
    <path d="M46.5594 16.7273H43.4657V8H46.585C47.4628 8 48.2185 8.17472 48.8521 8.52415C49.4856 8.87074 49.9728 9.36932 50.3137 10.0199C50.6574 10.6705 50.8293 11.4489 50.8293 12.3551C50.8293 13.2642 50.6574 14.0455 50.3137 14.6989C49.9728 15.3523 49.4827 15.8537 48.8435 16.2031C48.2072 16.5526 47.4458 16.7273 46.5594 16.7273ZM45.3109 15.1463H46.4827C47.0282 15.1463 47.487 15.0497 47.8592 14.8565C48.2342 14.6605 48.5154 14.358 48.7029 13.9489C48.8932 13.5369 48.9884 13.0057 48.9884 12.3551C48.9884 11.7102 48.8932 11.1832 48.7029 10.7741C48.5154 10.3651 48.2356 10.0639 47.8634 9.87074C47.4913 9.67756 47.0324 9.58097 46.487 9.58097H45.3109V15.1463Z" fill="white"/>
    <path d="M10 12H18" stroke="white" stroke-width="2" stroke-linecap="round" stroke-linejoin="round"/>
    <path d="M14 8V16" stroke="white" stroke-width="2" stroke-linecap="round" stroke-linejoin="round"/>
</svg>

<svg xmlns="http://www.w3.org/2000/svg" width="63" height="24" fill="none"><rect width="63" height="24" fill="#563AFF" rx="7"/><path fill="#fff" d="M27.263 16.727h-1.977L28.298 8h2.378l3.009 8.727h-1.978l-2.186-6.733h-.068l-2.19 6.733Zm-.124-3.43h4.67v1.44h-4.67v-1.44Zm10.69 3.43h-3.094V8h3.12c.877 0 1.633.175 2.267.524.633.347 1.12.845 1.461 1.496.344.65.516 1.429.516 2.335 0 .91-.172 1.69-.516 2.344a3.543 3.543 0 0 1-1.47 1.504c-.636.35-1.398.524-2.284.524Zm-1.249-1.58h1.172c.546 0 1.005-.097 1.377-.29.375-.196.656-.499.843-.908.19-.412.286-.943.286-1.594 0-.645-.095-1.172-.286-1.58a1.848 1.848 0 0 0-.84-.904c-.371-.193-.83-.29-1.375-.29H36.58v5.565Zm9.98 1.58h-3.094V8h3.119c.878 0 1.633.175 2.267.524a3.54 3.54 0 0 1 1.462 1.496c.343.65.515 1.429.515 2.335 0 .91-.172 1.69-.515 2.344a3.543 3.543 0 0 1-1.47 1.504c-.637.35-1.398.524-2.285.524Zm-1.25-1.58h1.173c.545 0 1.004-.097 1.376-.29.375-.196.656-.499.844-.908.19-.412.285-.943.285-1.594 0-.645-.095-1.172-.285-1.58a1.848 1.848 0 0 0-.84-.904c-.372-.193-.83-.29-1.376-.29h-1.176v5.565Z"/><path stroke="#fff" stroke-linecap="round" stroke-linejoin="round" stroke-width="2" d="M10 12h8m-4-4v8"/></svg>
